X:298
T:Return to Burton Road
T:Finbar Dwyer's
T:Paddy Taylor's
R:jig
C:Richard Dwyer
Z:id:hn-jig-298
M:6/8
K:D
~d3 faf|gec Ace|~d3 AFA|=cBc EFG|
~d3 faf|gec Ace|~d3 AFA|GEA D3:|
|:~d3 ~a3|~g3 ~a3|~d3 ~a3|gef gfe|
def ecA|GAB AFG|Adf ecA|GEA D3:|
|:E/F/GA =cAG|Ad^c d2e|fag efd|ABG FED|
~d3 afd|Bef ~g3|faf ecA|1 GEA D2 A:|2 GEA D3||

